core/assets/icons/face_id.svg

<svg width="24" height="24" viewBox="0 0 24 24" xmlns="http://www.w3.org/2000/svg"><g id="face id"><g id="ring"><path id="top-left" fill-rule="evenodd" clip-rule="evenodd" d="M1.16797 3.09497C1.16797 1.9904 2.0634 1.09497 3.16797 1.09497H7.71035V3.09497L3.16797 3.09497V7.79156H1.16797V3.09497Z"/><path id="bottom-left" fill-rule="evenodd" clip-rule="evenodd" d="M1.16797 20.905C1.16797 22.0095 2.0634 22.905 3.16797 22.905H7.65648V20.905L3.16797 20.905V16.2373H1.16797V20.905Z"/><path id="top-right" fill-rule="evenodd" clip-rule="evenodd" d="M22.8323 3.09497C22.8323 1.9904 21.9368 1.09497 20.8323 1.09497H16.2453V3.09497L20.8323 3.09497V7.7496H22.8323V3.09497Z"/><path id="bottom-right" fill-rule="evenodd" clip-rule="evenodd" d="M22.8323 20.905C22.8323 22.0095 21.9368 22.905 20.8323 22.905H16.318V20.905L20.8323 20.905V16.223H22.8323V20.905Z"/></g><g id="face"><path id="mouth" fill-rule="evenodd" clip-rule="evenodd" d="M7.2972 16.2694C7.51029 15.79 8.07171 15.574 8.55116 15.7871L9.06178 16.0141C10.9248 16.8421 13.0515 16.8421 14.9145 16.0141L15.4251 15.7871C15.9046 15.574 16.466 15.79 16.6791 16.2694C16.8922 16.7489 16.6762 17.3103 16.1968 17.5234L15.6862 17.7503C13.3318 18.7967 10.6444 18.7967 8.29011 17.7503L7.77949 17.5234C7.30004 17.3103 7.08412 16.7489 7.2972 16.2694Z"/><path id="nose" fill-rule="evenodd" clip-rule="evenodd" d="M12.4931 7.21008C13.0178 7.21008 13.4431 7.63541 13.4431 8.16008V12.3511C13.4431 13.4418 12.68 14.3838 11.6131 14.6101L11.0807 14.723C10.5674 14.8319 10.0631 14.5041 9.95422 13.9908C9.84535 13.4776 10.1732 12.9733 10.6864 12.8644L11.2188 12.7514C11.4079 12.7113 11.5431 12.5444 11.5431 12.3511V8.16008C11.5431 7.63541 11.9685 7.21008 12.4931 7.21008Z"/><path id="eye-left" fill-rule="evenodd" clip-rule="evenodd" d="M7.1458 7.21008C7.67047 7.21008 8.0958 7.63541 8.0958 8.16008L8.0958 10.1721C8.0958 10.6968 7.67047 11.1221 7.1458 11.1221C6.62113 11.1221 6.1958 10.6968 6.1958 10.1721L6.1958 8.16008C6.1958 7.63541 6.62113 7.21008 7.1458 7.21008Z"/><path id="eye-right" fill-rule="evenodd" clip-rule="evenodd" d="M17 7.21008C17.5247 7.21008 17.95 7.63541 17.95 8.16008L17.95 10.1721C17.95 10.6968 17.5247 11.1221 17 11.1221C16.4754 11.1221 16.05 10.6968 16.05 10.1721L16.05 8.16008C16.05 7.63541 16.4754 7.21008 17 7.21008Z"/></g></g></svg>

<svg xmlns="http://www.w3.org/2000/svg" width="24" height="24" fill="none"><g fill="#191C22" fill-rule="evenodd" clip-rule="evenodd"><path d="M1.168 3.095a2 2 0 0 1 2-2H7.71v2H3.168v4.697h-2V3.095ZM1.168 20.905a2 2 0 0 0 2 2h4.488v-2H3.168v-4.668h-2v4.668ZM22.832 3.095a2 2 0 0 0-2-2h-4.587v2h4.587V7.75h2V3.095ZM22.832 20.905a2 2 0 0 1-2 2h-4.514v-2h4.514v-4.682h2v4.682ZM7.297 16.27a.95.95 0 0 1 1.254-.483l.51.227a7.205 7.205 0 0 0 5.854 0l.51-.227a.95.95 0 0 1 .772 1.736l-.51.227a9.105 9.105 0 0 1-7.397 0l-.51-.227a.95.95 0 0 1-.483-1.254ZM12.493 7.21a.95.95 0 0 1 .95.95v4.191a2.31 2.31 0 0 1-1.83 2.26l-.532.112a.95.95 0 1 1-.395-1.859l.533-.113a.41.41 0 0 0 .324-.4v-4.19a.95.95 0 0 1 .95-.95ZM7.146 7.21a.95.95 0 0 1 .95.95v2.012a.95.95 0 1 1-1.9 0V8.16a.95.95 0 0 1 .95-.95ZM17 7.21a.95.95 0 0 1 .95.95v2.012a.95.95 0 1 1-1.9 0V8.16a.95.95 0 0 1 .95-.95Z"/></g></svg>
